apps/documenteditor/main/resources/img/toolbar/2.5x/big/btn-review-next.svg

<svg width="28" height="28" viewBox="0 0 28 28" fill="none" xmlns="http://www.w3.org/2000/svg">
<path fill-rule="evenodd" clip-rule="evenodd" d="M5 7V18H11V19H5C4.4 19 4 18.6 4 18V7C4 6.4 4.4 6 5 6H22C22.6 6 23 6.4 23 7V13H22V7H5ZM8 10H19V11H8V10ZM16 13H8V14H16V13ZM17.793 15.2072L20.5858 18H13V20H20.5859L17.793 22.793L19.2072 24.2072L24.4143 19.0001L19.2072 13.793L17.793 15.2072Z" fill="black"/>
</svg>

<svg xmlns="http://www.w3.org/2000/svg" width="28" height="28" fill="none"><path fill="#000" d="m24.414 19-5.207 5.207-1.414-1.414L20.586 20H13v-2h7.586l-2.793-2.793 1.414-1.414L24.414 19Z"/><path fill="#000" d="M22 6c.6 0 1 .4 1 1v6h-1V7H5v11h6v1H5c-.6 0-1-.4-1-1V7c0-.6.4-1 1-1h17Z"/><path fill="#000" d="M16 14H8v-1h8v1Zm3-3H8v-1h11v1Z"/></svg>
